icons/sword-fill.svg

<svg viewBox="0 0 24 24" fill="currentColor" xmlns="http://www.w3.org/2000/svg">
    <path d="M7.04813 13.4061L10.5831 16.9421L9.1703 18.3558L10.5849 19.7711L9.17064 21.1853L6.69614 18.71L3.86734 21.5388L2.45312 20.1246L5.28192 17.2958L2.80668 14.8213L4.22089 13.4071L5.63477 14.8202L7.04813 13.4061ZM2.99907 3L6.54506 3.00335L18.3624 14.8207L19.7772 13.4071L21.1915 14.8213L18.7166 17.2962L21.545 20.1246L20.1308 21.5388L17.3024 18.7104L14.8275 21.1853L13.4133 19.7711L14.8269 18.3562L3.00181 6.53118L2.99907 3ZM17.4563 3.0001L20.9991 3.00335L21.001 6.52648L16.9481 10.5781L13.4121 7.0431L17.4563 3.0001Z"/>
</svg>

<svg xmlns="http://www.w3.org/2000/svg" viewBox="0 0 24 24">
    <g>
        <path fill="none" d="M0 0h24v24H0z"/>
        <path fill-rule="nonzero" d="M7.05 13.406l3.534 3.536-1.413 1.414 1.415 1.415-1.414 1.414-2.475-2.475-2.829 2.829-1.414-1.414 2.829-2.83-2.475-2.474 1.414-1.414 1.414 1.413 1.413-1.414zM3 3l3.546.003 11.817 11.818 1.415-1.414 1.414 1.414-2.474 2.475 2.828 2.829-1.414 1.414-2.829-2.829-2.475 2.475-1.414-1.414 1.414-1.415L3.003 6.531 3 3zm14.457 0L21 3.003l.002 3.523-4.053 4.052-3.536-3.535L17.457 3z"/>
    </g>
</svg>
